X: 30120
T: Old Blackthorn, The
R: reel
M: 4/4
K: Fmajor
||e2|fAAd cAGA|Fffe dcde|fAAd cAFA|GFEG Fbag|
fAAd cAGA|Fffe dcde|fAAd cAFA|GFEG F2~f2||
f2a/g/f gbaf|c2 e/d/c gcec|fgab c'2 c'd'|c'agb af~f2|
f2a/g/f gbaf|c2 e/d/c gcec|fgab c'2 c'd'|c'aga f4||

